material/.icons/material/card-plus.svg

<svg xmlns="http://www.w3.org/2000/svg" viewBox="0 0 24 24"><path d="M13.09 20H4a2 2 0 01-2-2V6a2 2 0 012-2h16c1.11 0 2 .89 2 2v7.81c-.88-.51-1.91-.81-3-.81-3.31 0-6 2.69-6 6 0 .34.04.67.09 1M18 15v3h-3v2h3v3h2v-3h3v-2h-3v-3h-2z"/></svg>

<?xml version="1.0" encoding="UTF-8"?><!DOCTYPE svg PUBLIC "-//W3C//DTD SVG 1.1//EN" "http://www.w3.org/Graphics/SVG/1.1/DTD/svg11.dtd"><svg xmlns="http://www.w3.org/2000/svg" xmlns:xlink="http://www.w3.org/1999/xlink" version="1.1" id="mdi-card-plus" width="24" height="24" viewBox="0 0 24 24"><path d="M13.09 20H4C2.9 20 2 19.11 2 18V6C2 4.89 2.9 4 4 4H20C21.11 4 22 4.89 22 6V13.81C21.12 13.3 20.09 13 19 13C15.69 13 13 15.69 13 19C13 19.34 13.04 19.67 13.09 20M18 15V18H15V20H18V23H20V20H23V18H20V15H18Z" /></svg>
